X:39
T:Kerry March.#34 JBs.039
S:Jas.Blackshaw MS, 1837, N.Shropshire
Z:Tony Weatherall 2006
M:4/4
L:1/8
Q:1/4=150
A:North Shropshire
R:March
K:C
â€ Bugleâ€G2|c2(3ccc c2e2|c2 (3ccc c2e2|g4e2c2|d>cBA G>ABG|
c2(3ccc c2e2|c2 (3ccc c2e2|d2g2^f>ga>f|g2g>g g2:|
|:â€Fluteâ€c2|d2(3ddd d2f>e|d2(3ddd d2f>e|d>^cd>e f>ed>c|B>cd>c B>GA>B|
c2(3ccc c2câ€™2|a2(3aaa a2f2|e>fg>e d>ef>d|e2c>cc2 ğŸ˜
K:GMaj
|:â€Trioâ€d>c|B>cd>e d2g2|B>cd>e d2g2|f>ga>g f>ed>c|B>cd>B A>ed>c|
B>cd>e d2g2| B>cd>ed2g2|f>ga>g f>de>f|g2g>gg2:|
|:(3bbb|b2 (3bbb b2 (3bbb|b4 g2e2|b4 g2e2|câ€™>ba>g ^f>ed>c|
B>cd>e d2g2|B>cd>e d2g2|f>ga>g f>de>f|g2g>g g2:|
K:Cmaj

